!!!COM: Frank Martin
!!!OTL: [T541_Mai-w11p25h9m1-12]
**kern	**kern	**dynam	**kern	**dynam	**kern	**dynam
*grp:A	*grp:A	*grp:A	*grp:B	*grp:B	*grp:B	*grp:B
*part3	*part3	*	*part2	*part2	*part1	*part1
*staff4	*staff3	*	*staff2	*	*staff1	*
*I"Piano	*	*	*I"Violoncello	*	*I"Violin	*
*I'Pno.	*	*	*I'Vc.	*	*I'Vln.	*
!!pagebreak:original
*clefF4	*clefG2	*	*clefC4	*	*clefG2	*
*k[f#c#g#d#]	*k[f#c#g#d#]	*	*k[f#c#g#d#]	*	*k[f#c#g#d#]	*
*E:	*E:	*	*E:	*	*E:	*
*M6/8	*M6/8	*	*M6/8	*	*M6/8	*
!!LO:REH:t=9
=1	=1	=1	=1	=1	=1	=1
!	!	!	!	!	!LO:TX:t=[quarter-dot]=144	!
!	!	!LO:DY:ed=brack	!	!LO:DY:ed=brack	!	!LO:DY:ed=brack
!	!	!LO:DY:t=meno %s sempre staccato	!	!LO:DY:t=meno %s	!	!LO:DY:t=meno %s
8DDn^^ 8AA 8BB	8B'L 8d#X	p	8BL	p	8ff#L	p
8r	8c#' 8e	.	8B	.	8ee	.
8r	8d#'J 8f#	.	8BJ	.	8dd#J	.
4r	8c#'L 8e	.	8BL	.	8eeL	.
.	8d#' 8f#	.	8B	.	8dd#	.
8DD^^ 8AA 8BB	8e'J 8g#	.	8BJ	.	8cc#J	.
=2	=2	=2	=2	=2	=2	=2
8r	8d#'L 8f#	.	8BL	.	8dd#L	.
8r	8e' 8g#	.	8B	.	8cc#	.
8DDn^^ 8AA 8BB	8f#'J 8a#X	.	8BJ	.	8bJ	.
8r	8e'L 8g#	.	8BL	.	8cc#L	.
8r	8f#' 8a#	.	8B	.	8a#X	.
8r	8g#'J 8b	.	8BJ	.	8f#J	.
=3	=3	=3	=3	=3	=3	=3
4r	8an'L 8cc#	.	8BL	.	8f#L	.
.	8b' 8dd#	.	8c#	.	8f#	.
8r	8cc#'J 8ee	.	8d#J	.	8f#J	.
8r	8r	.	4.e^	.	4.an^	.
8AAA^^ 8AA 8BB	8cc#'L 8ee 8gg#	.	.	.	.	.
8r	8dd#'J 8ff#	.	.	.	.	.
=4	=4	=4	=4	=4	=4	=4
8DDn^^ 8AA 8BB	8b' 8dd#X 8ff#	.	8BL	.	8f#L	.
8r	8r	.	8c#	.	8f#	.
8r	8r	.	8d#J	.	8f#J	.
8r	8r	.	4.e^	.	4.a^	.
8AAA^^ 8AA 8BB	8c#'L 8e 8g#	.	.	.	.	.
8r	8d#'J 8f#	.	.	.	.	.
=5	=5	=5	=5	=5	=5	=5
8DDn^^ 8AA 8BB	8B^^ 8d#X 8f#	.	8BL	.	8ff#L	.
8r	8r	.	8B	.	8ee	.
8r	8r	.	8BJ	.	8dd#J	.
4r	4r	.	8BL	.	8eeL	.
.	.	.	8B	.	8dd#	.
8Dn 8A	8B^^ 8d#X 8f#	.	8BJ	.	8cc#J	.
=6	=6	=6	=6	=6	=6	=6
4r	4r	.	8BL	.	8dd#L	.
.	.	.	8B	.	8cc#	.
8Dn 8A	8B^^ 8d#X 8f#	.	8BJ	.	8bJ	.
4.r	4.r	.	8BL	.	8cc#L	.
.	.	.	8B	.	8a#X	.
.	.	.	8BJ	.	8f#J	.
!!linebreak:original
=7	=7	=7	=7	=7	=7	=7
4r	4r	.	8BL	.	8f#L	.
.	.	.	8c#	.	8f#	.
8r	8r	.	8d#J	.	8f#J	.
8r	8r	.	4.e^	.	4.an^	.
8AA^^ 8A 8B	(8c#^^L 8e 8g#	.	.	.	.	.
8r	8d#J 8f#)	.	.	.	.	.
=8	=8	=8	=8	=8	=8	=8
8Dn^^ 8A 8B	8B^^ 8d#X 8f#	.	8BL	.	8f#L	.
8r	8r	.	8c#	.	8f#	.
8r	8r	.	8d#J	.	8f#J	.
8r	8r	.	8e^L	.	8a^L	.
8AA^^ 8A 8B	8c#^^ 8e 8g#	.	8d#	.	8f#	.
8r	8r	.	8c#J	.	8eJ	.
=9	=9	=9	=9	=9	=9	=9
8Dn^^ 8A 8B	8B^^ 8d#X 8f#	.	4B^	.	(8f#L	.
8r	8r	.	.	.	8b')	.
8r	8r	.	4c#^	.	8b'J	.
4r	4r	.	.	.	(8f#L	.
.	.	.	4d#^	.	8b')	.
8AA^^ 8A 8B	8B^^ 8d# 8f#	.	.	.	8b'J	.
=10	=10	=10	=10	=10	=10	=10
8r	8r^^	.	([4.e^	.	(8.cc#L	.
8AA^^ 8A 8B	8c#^^ 8e 8g#	.	.	.	.	.
.	.	.	.	.	16dd#L	.
8r	8r	.	.	.	16cc#	.
.	.	.	.	.	16bJJ)	.
8r	8r	.	8eL]	.	(4an^	.
8AA^^ 8A 8B	(8c#^^L 8e 8g#	.	8d#	.	.	.
8r	8d#J 8f#)	.	8c#J)	.	8b)	.
=11	=11	=11	=11	=11	=11	=11
8Dn^^ 8A 8B	8B^^ 8d#X 8f#	.	4B^	.	(8cc#L	.
8r	8r	.	.	.	8ff#)	.
8r	8r	.	4c#^	.	8ff#'J	.
4r	4r	.	.	.	(8eeL	.
.	.	.	4d#^	.	8cc#')	.
8D^^ 8A 8B	8B^^ 8d# 8f#	.	.	.	8bJ	.
=12	=12	=12	=12	=12	=12	=12
8r^^	8r^^	.	(8e^L	.	(8cc#L	.
8Dn^^ 8A 8B	8B^^ 8d# 8f#	.	8d#)	.	8b)	.
8r	8r	.	8c#'J	.	8b'J	.
8r	8r	.	8B'	.	8b'	.
8D^^ 8A 8B	(8d#^L 8f# 8b	.	8r	.	8r	.
8r	8cc#J)	.	8r	.	8r	.
=	=	=	=	=	=	=
*-	*-	*-	*-	*-	*-	*-
!!!system-decoration: s1,s2[({(s3,s4)})]
